X: 25060
T: Maids Of Brittany, The
R: reel
M: 4/4
K: Gmajor
dc|:"G"BDGB "D"ADFA|"G"GDB,D G,A,B,G,|"C"CEGB "Am7"cBAG|"D"FDFA dedc|
"G"BDGB "D"ADFA|"G"GDB,D G,A,B,G,|"C"CEGc "G"BD"D"FA|"G"DGGF G2 dc:|
|:"G"BDGB dGBd|gaba gGBd|"C"ecge "G"dBGB|"Am7"cBAG "D"(3FED CA,||
[1 "G"G,A,B,G, "C"CDEG|"D"FADF "G"GABd|"C"cdeg "D"fadf|"C"g2 gf "G"g2 dc:|
[2 "G"G,A,B,G, "C"CEGE|"D"DFAF "G"GFED|"C"CEGc "G"BD"D"FA|"D7sus4"DGGF G4||

